build/img/quote.svg

<svg width="71" height="60" viewBox="0 0 71 60" fill="none" xmlns="http://www.w3.org/2000/svg">
<path opacity="0.3" fill-rule="evenodd" clip-rule="evenodd" d="M70.6886 9.37093C60.1011 14.577 54.8074 20.6941 54.8074 27.7223C59.3201 28.243 63.0517 30.0868 66.0024 33.2538C68.953 36.4208 70.4283 40.0867 70.4283 44.2516C70.4283 48.6768 68.9964 52.4078 66.1325 55.4447C63.2687 58.4816 59.6672 60 55.3281 60C50.4682 60 46.2593 58.0261 42.7011 54.0781C39.143 50.1301 37.364 45.3363 37.364 39.6963C37.364 22.7765 46.8232 9.54452 65.742 0L70.6886 9.37093ZM33.3246 9.37093C22.6503 14.577 17.3132 20.6941 17.3132 27.7223C21.9127 28.243 25.6877 30.0868 28.6384 33.2538C31.589 36.4208 33.0643 40.0867 33.0643 44.2516C33.0643 48.6768 31.6107 52.4078 28.7034 55.4447C25.7962 58.4816 22.1731 60 17.8339 60C12.974 60 8.78679 58.0261 5.27206 54.0781C1.75734 50.1301 0 45.3363 0 39.6963C0 22.7765 9.41585 9.54452 28.2478 0L33.3246 9.37093Z" fill="#047A33"/>
</svg>

<svg width="71" height="60" fill="none" xmlns="http://www.w3.org/2000/svg"><path opacity=".3" fill-rule="evenodd" clip-rule="evenodd" d="M70.689 9.37C60.1 14.578 54.807 20.695 54.807 27.723c4.513.521 8.245 2.365 11.195 5.532 2.951 3.167 4.426 6.833 4.426 10.998 0 4.425-1.432 8.156-4.296 11.193C63.27 58.482 59.667 60 55.328 60c-4.86 0-9.069-1.974-12.627-5.922-3.558-3.948-5.337-8.742-5.337-14.382 0-16.92 9.46-30.151 28.378-39.696l4.947 9.37zm-37.364 0C22.65 14.578 17.313 20.695 17.313 27.723c4.6.521 8.375 2.365 11.325 5.532 2.951 3.167 4.426 6.833 4.426 10.998 0 4.425-1.453 8.156-4.36 11.193C25.795 58.482 22.173 60 17.833 60c-4.86 0-9.047-1.974-12.562-5.922C1.757 50.13 0 45.336 0 39.696 0 22.776 9.416 9.545 28.248 0l5.077 9.37z" fill="#047A33"/></svg>
